X:105
T:The Honest Man
N:"Moderate" "collected by J.O'Neill"
B:O'Neill's 105
Z:Transcribed by henrik.norbeck@mailbox.swipnet.se
M:3/4
L:1/8
K:D
D/E/ .F/.G/.A/.B/|c2 dc Bc/B/|AF DD/E/ .F/.G/.A/c.B/|A2 GF .D.D|D3 D/E/ .F/.G/.A/.B/|
c2 dc Bc/B/|AF DD/E/ .F/.G/.A/.B/|"p"A2 GF "pp"DD|D3||
FG Ad/e/|f2 ge/c/ dd|dc AF/G/ Ad/e/|f2 agf ed|cdeHd3 c Bc/B/|
A2 AB/c/ dA|GF DD/E/ .F/.G/.A/c.B/|A2 GF DD|D3||
